public/static/icons/fail.svg

<svg width="18" height="20" viewBox="0 0 18 20" fill="none" xmlns="http://www.w3.org/2000/svg">
<path d="M11.4405 10.0002L17.5519 3.01091C18.2184 2.24869 18.1313 1.09822 17.3572 0.441594C16.5844 -0.214537 15.4165 -0.1292 14.7496 0.633021L8.99981 7.20861L3.25066 0.633021C2.58415 -0.129698 1.41618 -0.215035 0.6424 0.441594C-0.131636 1.09822 -0.218258 2.24878 0.448259 3.01091L6.55915 10.0002L0.448259 16.9892C-0.218258 17.7514 -0.131636 18.9019 0.6424 19.5585C0.9915 19.8548 1.42107 20 1.8487 20C2.36785 20 2.88463 19.7853 3.25066 19.3671L8.99981 12.7915L14.7496 19.3671C15.1151 19.7856 15.6318 20 16.1514 20C16.5786 20 17.0082 19.8548 17.3573 19.5585C18.1313 18.9019 18.2185 17.7514 17.552 16.9892L11.4405 10.0002Z" fill="#F23232"/>
</svg>

<svg width="18" height="20" fill="none" xmlns="http://www.w3.org/2000/svg"><path d="m11.44 10 6.112-6.99a1.803 1.803 0 0 0-.195-2.568 1.869 1.869 0 0 0-2.607.191L9 7.209 3.25.633A1.869 1.869 0 0 0 .643.442 1.803 1.803 0 0 0 .448 3.01L6.56 10 .45 16.988a1.803 1.803 0 0 0 .193 2.57c.35.296.78.441 1.207.441.519 0 1.036-.215 1.402-.633L9 12.791l5.75 6.576c.365.419.882.633 1.401.633.428 0 .857-.145 1.206-.442a1.803 1.803 0 0 0 .195-2.569L11.441 10Z" fill="#F23232"/></svg>
